app/assets/images/heroicon/mini/clipboard-document-check.svg

<svg width="20" height="20" viewBox="0 0 20 20" fill="none" xmlns="http://www.w3.org/2000/svg">
<path fill-rule="evenodd" clip-rule="evenodd" d="M15.9875 3.0124C17.1185 3.1311 17.9999 4.08761 17.9999 5.25V11.75C17.9999 12.9926 16.9925 14 15.7499 14H13.4999V7C13.4999 5.61929 12.3806 4.5 10.9999 4.5H8.12793C8.4115 3.69769 9.13721 3.10424 10.0123 3.0124C10.131 1.88145 11.0875 1 12.2499 1H13.7499C14.9123 1 15.8688 1.88145 15.9875 3.0124ZM11.4999 3.25C11.4999 2.83579 11.8357 2.5 12.2499 2.5H13.7499C14.1641 2.5 14.4999 2.83579 14.4999 3.25V3.5H11.4999V3.25Z" fill="#0F172A"/>
<path fill-rule="evenodd" clip-rule="evenodd" d="M2 7C2 6.44771 2.44772 6 3 6H11C11.5523 6 12 6.44772 12 7V17C12 17.5523 11.5523 18 11 18H3C2.44772 18 2 17.5523 2 17V7ZM10.0028 9.19322C10.3101 9.47088 10.3342 9.94514 10.0565 10.2525C8.93292 11.4963 7.94055 12.8608 7.1012 14.3239C6.98499 14.5265 6.78106 14.6633 6.54957 14.6941C6.31808 14.7249 6.08545 14.6462 5.92031 14.481L4.21967 12.7804C3.92678 12.4875 3.92678 12.0126 4.21967 11.7197C4.51256 11.4268 4.98743 11.4268 5.28033 11.7197L6.30179 12.7412C7.08048 11.4988 7.96528 10.3298 8.94346 9.247C9.22113 8.93963 9.69539 8.91555 10.0028 9.19322Z" fill="#0F172A"/>
</svg>

<svg xmlns="http://www.w3.org/2000/svg" viewBox="0 0 20 20" fill="currentColor" aria-hidden="true">
  <path fill-rule="evenodd" d="M15.988 3.012A2.25 2.25 0 0118 5.25v6.5A2.25 2.25 0 0115.75 14H13.5V7A2.5 2.5 0 0011 4.5H8.128a2.252 2.252 0 011.884-1.488A2.25 2.25 0 0112.25 1h1.5a2.25 2.25 0 012.238 2.012zM11.5 3.25a.75.75 0 01.75-.75h1.5a.75.75 0 01.75.75v.25h-3v-.25z" clip-rule="evenodd"/>
  <path fill-rule="evenodd" d="M2 7a1 1 0 011-1h8a1 1 0 011 1v10a1 1 0 01-1 1H3a1 1 0 01-1-1V7zm8.003 2.193a.75.75 0 01.053 1.06 23.578 23.578 0 00-2.955 4.07.75.75 0 01-1.18.158l-1.701-1.7a.75.75 0 011.06-1.061l1.022 1.021a25.093 25.093 0 012.641-3.494.75.75 0 011.06-.054z" clip-rule="evenodd"/>
</svg>
